src/assets/images/image.svg

<svg width="80" height="80" viewBox="0 0 80 80" fill="none" xmlns="http://www.w3.org/2000/svg">
<rect width="80" height="80" fill="white"/>
<path d="M36.2341 36.7384C40.6409 36.7384 44.2267 33.1532 44.2267 28.7465C44.2267 24.3391 40.6409 20.7539 36.2341 20.7539C31.8274 20.7539 28.2422 24.3391 28.2422 28.7465C28.2422 33.1532 31.8274 36.7384 36.2341 36.7384ZM36.2341 25.4414C38.0566 25.4414 39.5392 26.924 39.5392 28.7465C39.5392 30.5684 38.0566 32.0509 36.2341 32.0509C34.4122 32.0509 32.9297 30.5684 32.9297 28.7465C32.9297 26.924 34.4122 25.4414 36.2341 25.4414Z" fill="#E3E3E3"/>
<path d="M77.0789 5.78125H2.92114C1.31042 5.78125 0 7.09167 0 8.70239V71.4722C0 73.0829 1.31042 74.3933 2.92114 74.3933H77.0789C78.6896 74.3933 80 73.0829 80 71.4722V8.70239C80 7.09167 78.6896 5.78125 77.0789 5.78125ZM75.3125 10.4688V47.5635L60.5701 32.8204C59.6088 31.861 58.0457 31.8616 57.085 32.8223L36.2347 53.6725L22.9163 40.3546C22.4506 39.8883 21.8311 39.6313 21.1719 39.6313C20.5133 39.6313 19.8944 39.8877 19.4287 40.3534L4.6875 55.0946V10.4688H75.3125ZM4.6875 69.7058V61.7236L21.1719 45.2393L34.4897 58.5571C34.9561 59.0234 35.5756 59.281 36.2347 59.281C36.8927 59.281 37.5122 59.024 37.9773 58.5583L58.8281 37.7075L75.3131 54.1925V69.7058H4.6875Z" fill="#f2f3f9"/>
</svg>

<svg width="80" height="80" fill="none" xmlns="http://www.w3.org/2000/svg"><path fill="#fff" d="M0 0h80v80H0z"/><path d="M36.234 36.738c4.407 0 7.993-3.585 7.993-7.991 0-4.408-3.586-7.993-7.993-7.993s-7.992 3.585-7.992 7.992 3.585 7.992 7.992 7.992zm0-11.297a3.309 3.309 0 013.305 3.306 3.309 3.309 0 01-3.305 3.304 3.308 3.308 0 01-3.304-3.305 3.309 3.309 0 013.304-3.305z" fill="#E3E3E3"/><path d="M77.079 5.781H2.92A2.924 2.924 0 000 8.702v62.77c0 1.61 1.31 2.921 2.921 2.921H77.08c1.61 0 2.921-1.31 2.921-2.92V8.702c0-1.611-1.31-2.922-2.921-2.922zm-1.766 4.688v37.094L60.57 32.82a2.469 2.469 0 00-3.485.002l-20.85 20.85-13.319-13.317a2.45 2.45 0 00-1.744-.724c-.659 0-1.278.257-1.743.722L4.688 55.095V10.469h70.624zM4.686 69.706v-7.982l16.485-16.485L34.49 58.557a2.453 2.453 0 001.745.724c.658 0 1.277-.257 1.742-.723l20.851-20.85 16.485 16.485v15.513H4.687z" fill="#f2f3f9"/></svg>
